client/resources/iconsets/breeze/src/svg/16x16/icon_category_add.svg

<svg xmlns="http://www.w3.org/2000/svg" width="16" height="16" viewBox="0 0 16 16">
 <path style="fill:#cac8c8"
       d="M 3 1 C 3 1 1 1 1 3 L 1 8 L 8 15 L 15 8 L 14 7 L 12 7 L 11 7 L 11 6 L 11 5 L 10 5 L 9 5 L 9 2 L 8 1 L 3 1 z M 4 3 C 4.55228 3 5 3.44772 5 4 C 5 4.55228 4.55228 5 4 5 C 3.44772 5 3 4.55228 3 4 C 3 3.44772 3.44772 3 4 3 z M 10 3 L 10 4 L 11 4 L 10 3 z M 12 5 L 12 6 L 13 6 L 12 5 z "
       />
 <path style="fill:#cac8c8"
       d="m 12,0 0,2 -1.966797,0 C 10.014423,2 10,2.446 10,3 c 0,0.554 0.01442,1 0.0332,1 L 12,4 l 0,2 2,0 0,-2 1.966797,0 C 15.985577,4 16,3.554 16,3 16,2.446 15.985577,2 15.966797,2 L 14,2 14,0 Z"
       />
</svg>

<svg xmlns="http://www.w3.org/2000/svg" width="16" height="16" fill="#cac8c8"><path d="M3 1S1 1 1 3v5l7 7 7-7-1-1h-2-1V6 5h-1-1V2L8 1H3zm1 2a1 1 0 1 1 0 2 1 1 0 1 1 0-2zm6 0v1h1l-1-1zm2 2v1h1l-1-1z"/><path d="M12 0v2h-1.967C10.014 2 10 2.446 10 3l.033 1H12v2h2V4h1.967c.019 0 .033-.446.033-1l-.033-1H14V0z"/></svg>
